icons/1_Primary/Black Desert.svg

<svg width="1024" height="1024" fill="none" xmlns="http://www.w3.org/2000/svg"><g clip-path="url(#a)"><path d="M512 1024c282.77 0 512-229.23 512-512S794.77 0 512 0 0 229.23 0 512s229.23 512 512 512Z" fill="#8E6F60"/><path d="m514.63 236.48-70.06 70.05 180.05 180.04 27.69 27.701.31.31L537.87 629.32l-23.159 23.16-28.001-28L380.8 518.581l16.71-16.721 6.45-6.45 42.69-42.68 41.38 41.38-42.68 42.68 64.52 64.53 93.281-93.28L423.11 328 236.48 514.63l272.89 272.891L787.521 509.37 514.63 236.48Z" fill="#fff"/></g><defs><clipPath id="a"><path fill="#fff" d="M0 0h1024v1024H0z"/></clipPath></defs></svg>

<svg width="1024" height="1024" viewBox="0 0 1024 1024" fill="none" xmlns="http://www.w3.org/2000/svg">
<g clip-path="url(#clip0_2_1680)">
<path d="M512 1024C794.77 1024 1024 794.77 1024 512C1024 229.23 794.77 0 512 0C229.23 0 0 229.23 0 512C0 794.77 229.23 1024 512 1024Z" fill="#8E6F60"/>
<path d="M514.63 236.48L444.57 306.53L624.62 486.57L652.31 514.271L652.62 514.581L537.87 629.32L514.711 652.48L486.71 624.48L380.8 518.581L397.51 501.86L403.96 495.41L446.65 452.73L488.03 494.11L445.35 536.79L509.87 601.32L603.151 508.04L423.11 328L236.48 514.63L509.37 787.521L787.521 509.37L514.63 236.48Z" fill="white"/>
</g>
<defs>
<clipPath id="clip0_2_1680">
<rect width="1024" height="1024" fill="white"/>
</clipPath>
</defs>
</svg>
